X:1
T: Macfarlane's Strathspey
C:
R:Strathspey
Q: 128
K:D
M:4/4
L:1/16
|:f2|dA3 A4 FD3 D4|f3a e3g fd3 e4|dA3 A4 FD3 D3g|f3a e3f ddd2 d2f2|
dA3 A4 FD3 D4|f3a e3g fd3 e4|dA3 A4 FD3 D3g|f3a e3f ddd2 d2f2|
a3b a3f e3d ef3|d3A B3F d3F E4|a3b a3f e3d ef3|dA3 A3B d3e d3f|
a3b a3f e3d ef3|d3A B3F d3F E3F|D3F E3G FA3 A3g|f3a e3f ddd2 d2:|
